file-document-plus-outline.svg

<svg fill="currentColor" viewBox="0 0 24 24"><path d="M23 18h-3v-3h-2v3h-3v2h3v3h2v-3h3M6 2a2 2 0 0 0-2 2v16c0 1.11.89 2 2 2h7.81c-.36-.62-.61-1.3-.73-2H6V4h7v5h5v4.08c.33-.05.67-.08 1-.08.34 0 .67.03 1 .08V8l-6-6M8 12v2h8v-2m-8 4v2h5v-2Z"/></svg>

<svg  viewBox="0 0 24 24" fill="currentColor"><path  d="M23 18H20V15H18V18H15V20H18V23H20V20H23M6 2C4.89 2 4 2.9 4 4V20C4 21.11 4.89 22 6 22H13.81C13.45 21.38 13.2 20.7 13.08 20H6V4H13V9H18V13.08C18.33 13.03 18.67 13 19 13C19.34 13 19.67 13.03 20 13.08V8L14 2M8 12V14H16V12M8 16V18H13V16Z"/></svg>
